X:138
T: ES GIENG EIN WACKRES MAEDCHEN
N: E0071C
O: Europa, Mitteleuropa, Deutschland, Marburg
R: erzaehlendes Volks - Lied, Sage, Liebe
M: 2/4
L: 1/16
K: G
D2 | G2G2B2d2 | G2B2B2
d2 | d2c2c2B2 | B2A2z2
d2 | d2e2c2A2 | G2B2B2
B2 | B2A2A2Bc | e2d2d2
d2 | d2e2c2A2 | G2B2B2
B2 | d2d2e2d2 | B6

@@@ Tune index: 3788
